X: 205
T:Crib of Perches
S:M.Cranitch
Z:Christop
M:C
L:1/8
K:G
A2 AB AGFD| (3EFG AB c3 A| G2 EG CDEG| cAGc AG (3EFG|
A2 AB AGFD| (3EFG AB ~c3 d| eage dcAB| cAGE ED D2 :|
K:D
df f2 af f2| defd edcA| (3Bcd| ef gece| aecA ^GABc|
df f2 af f2| defd edcA| (3Bcd ec d2 cB| AFGE FD D2 :|
